X:1
T:Laxo Burn
M:C|
L:1/8
K:D
C:Arthur Scott Robertson
AG | "D"FDD2 FGA=c | "G"BGG2 GABd | "A7"^cAA2 cdeg | "D"fdcd "G"Bd"A"Ad |!
"D"FDD2 FGA=c | "G"BGG2 GABd | "A7"^cAA2 cdeg | "D"fddc d2 :||!
g2| "D"f2df Afdf | "Em"g2eg Bgeg | "E7"^g2eg Bgeg | "A"a2ea "A7"ceA=g |!
"D"f2df Afdf | "Em"g2eg "E7"Bge^g| "A7"aAA2 cde=g | "D"fddc d2 :|]
